X: 4032
T: SUMMER DAYS
R: Strathspey.
%R: strathspey
B: James Kerr "Merry Melodies" v.4 p.06 #32
Z: 2016 John Chambers <jc:trillian.mit.edu>
M: C
L: 1/8
K: A
|:\
A<A G>F E2 A>B | c>Ad>B e>c e<a |\
A<A G>F E2 A>B | c<f e>c B3 c :|
|:\
A>Bc>d e>c e<a | f<a g>f e>c B>c |\
A<A G>F E2 A>B |[1 c<f e>c B3 c :|[2 c>e B>c A3 z |]

%%sep 1 1 500
%%sep 1 1 500

